X: 0851
T: BLACK, BUT LOVELY
B: Oliver Ditson "The Boston Collection of Instrumental Music" 1910 p.85 #1
F: http://conquest.imslp.info/files/imglnks/usimg/8/8f/IMSLP175643-PMLP309456-bostoncollection00bost_bw.pdf
%: 2012 John Chambers <jc:trillian.mit.edu>
M: 6/8
L: 1/8
K: Em
|:\
B2d e2f | g>ag f2e | dBg f2e | dBe E2F |\
G>AG dBd | e/d/e/f/g/a/ f2e | {e}d{c}B{A}G A>cB/A/ | GEE TE3 :|
g2a b2c' | bag fed | Tgfe agf | bag fed |\
g2a b2c' | bag f/g/e/f/d | (3g/a/g (3f/g/f/ e (3a/b/a/ (3g/a/g/ f | bag (3f/g/f/ (3e/f/e/ d |
Tbc'/b/a/g/ Tab/a/g/f/ | ga/g/f/e/ f/a/g/f/e/d/ |\
Tbc'/b/a/g/ Tab/a/g/f/ | ga/g/f/e/ f/a/g/f/e/^d/ |\
eEE EFG | GAB B^c^d | eEE GAB | B>AB E3 |]

%%sep 1 1 500
%%sep 1 1 500
